; HEADER_BLOCK_START
; BambuStudio 01.10.01.50
; estimated printing time (normal mode) = 3m 4s
; total layer number: 1
; total filament length [mm] : 216.76
; total filament volume [cm^3] : 521.37
; total filament weight [g] : 0.65
; model label id: 99,109,119
; filament_density: 1.24
; filament_diameter: 1.75
; max_z_height: 0.22
; HEADER_BLOCK_END

; CONFIG_BLOCK_START
; accel_to_decel_enable = 0
; accel_to_decel_factor = 50%
; activate_air_filtration = 0
; additional_cooling_fan_speed = 70
; auxiliary_fan = 0
; bed_custom_model = C:/Program Files/Bambu Studio/resources/profiles/Anycubic/anycubic_i3megas_buildplate_model.stl
; bed_custom_texture = C:/Program Files/Bambu Studio/resources/profiles/Anycubic/anycubic_i3megas_buildplate_texture.png
; bed_exclude_area = 0x0
; before_layer_change_gcode = ;BEFORE_LAYER_CHANGE\nG92 E0.0\n;[layer_z]\n\n
; best_object_pos = 0.5,0.5
; bottom_shell_layers = 4
; bottom_shell_thickness = 0.5
; bottom_surface_pattern = monotonic
; bridge_angle = 0
; bridge_flow = 0.95
; bridge_no_support = 0
; bridge_speed = 25
; brim_object_gap = 0
; brim_type = no_brim
; brim_width = 6
; chamber_temperatures = 0
; change_filament_gcode = M600
; close_fan_the_first_x_layers = 1
; complete_print_exhaust_fan_speed = 80
; cool_plate_temp = 35
; cool_plate_temp_initial_layer = 35
; curr_bed_type = High Temp Plate
; default_acceleration = 1000
; default_filament_colour = ""
; default_filament_profile = "Generic PLA @Anycubic"
; default_jerk = 0
; default_print_profile = 0.20mm Standard @Anycubic i3MegaS
; deretraction_speed = 50
; detect_narrow_internal_solid_infill = 1
; detect_overhang_wall = 1
; detect_thin_wall = 0
; different_settings_to_system = brim_type;brim_width;initial_layer_print_height;raft_first_layer_expansion;skirt_height;skirt_loops;sparse_infill_density;sparse_infill_pattern;support_type;wall_loops;;bed_custom_model;bed_custom_texture;machine_start_gcode;print_host;printable_area;printable_height;printhost_apikey;printhost_ssl_ignore_revoke
; draft_shield = disabled
; during_print_exhaust_fan_speed = 60
; elefant_foot_compensation = 0.2
; enable_arc_fitting = 0
; enable_long_retraction_when_cut = 0
; enable_overhang_bridge_fan = 1
; enable_overhang_speed = 1
; enable_pressure_advance = 0
; enable_prime_tower = 0
; enable_support = 0
; enforce_support_layers = 0
; eng_plate_temp = 0
; eng_plate_temp_initial_layer = 0
; ensure_vertical_shell_thickness = 1
; exclude_object = 1
; extruder_clearance_dist_to_rod = 33
; extruder_clearance_height_to_lid = 140
; extruder_clearance_height_to_rod = 36
; extruder_clearance_max_radius = 65
; extruder_colour = #018001
; extruder_offset = 0x0
; extruder_type = Bowden
; fan_cooling_layer_time = 100
; fan_max_speed = 100
; fan_min_speed = 100
; filament_colour = #00FF40
; filament_cost = 20
; filament_density = 1.24
; filament_diameter = 1.75
; filament_end_gcode = "; filament end gcode \n"
; filament_flow_ratio = 0.98
; filament_ids = GFL99
; filament_is_support = 0
; filament_max_volumetric_speed = 12
; filament_minimal_purge_on_wipe_tower = 15
; filament_notes = 
; filament_scarf_gap = 0
; filament_scarf_height = 0%
; filament_scarf_length = 10
; filament_scarf_seam_type = none
; filament_settings_id = "Generic PLA @Anycubic"
; filament_shrink = 100%
; filament_soluble = 0
; filament_start_gcode = "; filament start gcode\n"
; filament_type = PLA
; filament_vendor = Generic
; filename_format = [input_filename_base].gcode
; filter_out_gap_fill = 0
; first_layer_print_sequence = 0
; flush_into_infill = 0
; flush_into_objects = 0
; flush_into_support = 1
; flush_multiplier = 1
; flush_volumes_matrix = 0
; flush_volumes_vector = 140,140
; full_fan_speed_layer = 0
; fuzzy_skin = none
; fuzzy_skin_point_distance = 0.8
; fuzzy_skin_thickness = 0.3
; gap_infill_speed = 30
; gcode_add_line_number = 0
; gcode_flavor = marlin
; has_scarf_joint_seam = 0
; head_wrap_detect_zone = 
; host_type = octoprint
; hot_plate_temp = 45
; hot_plate_temp_initial_layer = 45
; independent_support_layer_height = 1
; infill_combination = 0
; infill_direction = 45
; infill_jerk = 9
; infill_wall_overlap = 23%
; inherits_group = "0.20mm Standard @Anycubic i3MegaS";;"Anycubic i3 Mega S 0.4 nozzle"
; initial_layer_acceleration = 800
; initial_layer_flow_ratio = 1
; initial_layer_infill_speed = 35
; initial_layer_jerk = 9
; initial_layer_line_width = 0.42
; initial_layer_print_height = 0.22
; initial_layer_speed = 45
; inner_wall_acceleration = 0
; inner_wall_jerk = 9
; inner_wall_line_width = 0.45
; inner_wall_speed = 40
; interface_shells = 0
; internal_bridge_support_thickness = 0
; internal_solid_infill_line_width = 0
; internal_solid_infill_pattern = zig-zag
; internal_solid_infill_speed = 40
; ironing_direction = 45
; ironing_flow = 15%
; ironing_inset = 0
; ironing_pattern = zig-zag
; ironing_spacing = 0.1
; ironing_speed = 15
; ironing_type = no ironing
; is_infill_first = 0
; layer_change_gcode = ;AFTER_LAYER_CHANGE\n;[layer_z]
; layer_height = 0.2
; line_width = 0.45
; long_retractions_when_cut = 0
; machine_end_gcode = G1 E-1.0 F2100 ; retract\nG92 E0.0\nG1{if max_layer_z < printable_height} Z{z_offset+min(max_layer_z+30, printable_height)}{endif} E-34.0 F720 ; move print head up & retract filament\nG4 ; wait\nM104 S0 ; turn off temperature\nM140 S0 ; turn off heatbed\nM107 ; turn off fan\nG1 X0 Y105 F3000 ; park print head\nM84 ; disable motors
; machine_load_filament_time = 0
; machine_max_acceleration_e = 10000,10000
; machine_max_acceleration_extruding = 1250,1250
; machine_max_acceleration_retracting = 1250,1250
; machine_max_acceleration_travel = 1000,1000
; machine_max_acceleration_x = 3000,3000
; machine_max_acceleration_y = 2000,2000
; machine_max_acceleration_z = 60,60
; machine_max_jerk_e = 5,5
; machine_max_jerk_x = 10,10
; machine_max_jerk_y = 10,10
; machine_max_jerk_z = 0.4,0.4
; machine_max_speed_e = 30,30
; machine_max_speed_x = 500,500
; machine_max_speed_y = 500,500
; machine_max_speed_z = 8,8
; machine_min_extruding_rate = 0,0
; machine_min_travel_rate = 0,0
; machine_pause_gcode = M25
; machine_start_gcode = G90 ; use absolute coordinates\nM83 ; extruder relative mode\nM204 S[machine_max_acceleration_extruding] T[machine_max_acceleration_retracting]\nM104 S[nozzle_temperature_initial_layer] ; set extruder temp\nM140 S[bed_temperature_initial_layer_single] ; set bed temp\nG28 ; home all\n; hb begin instructions to use the mesh\nM501 ; hb load all saved settings from eeprom\nM420 S1 ; hb switch bed levelling on\nG29 S4 Z-0.07\n; hb end instructions to use the mesh\nG1 Y1.0 Z0.3 F1000 ; move print head up\nM190 S[bed_temperature_initial_layer_single] ; wait for bed temp\nM109 S[nozzle_temperature_initial_layer] ; wait for extruder temp\nG92 E0.0\n; initial load\nG1 X205.0 E19 F1000\nG1 Y1.6\nG1 X5.0 E19 F1000\nG92 E0.0\n; intro line\nG1 Y2.0 Z0.2 F1000\nG1 X65.0 E9.0 F1000\nG1 X105.0 E12.5 F1000\nG92 E0.0
; machine_unload_filament_time = 0
; max_bridge_length = 10
; max_layer_height = 0.36
; max_travel_detour_distance = 0
; min_bead_width = 85%
; min_feature_size = 25%
; min_layer_height = 0.08
; minimum_sparse_infill_area = 10
; mmu_segmented_region_interlocking_depth = 0
; mmu_segmented_region_max_width = 0
; nozzle_diameter = 0.4
; nozzle_height = 4
; nozzle_temperature = 220
; nozzle_temperature_initial_layer = 220
; nozzle_temperature_range_high = 230
; nozzle_temperature_range_low = 190
; nozzle_type = undefine
; nozzle_volume = 0
; only_one_wall_first_layer = 0
; ooze_prevention = 0
; other_layers_print_sequence = 0
; other_layers_print_sequence_nums = 0
; outer_wall_acceleration = 700
; outer_wall_jerk = 9
; outer_wall_line_width = 0.45
; outer_wall_speed = 40
; overhang_1_4_speed = 0
; overhang_2_4_speed = 20
; overhang_3_4_speed = 15
; overhang_4_4_speed = 10
; overhang_fan_speed = 100
; overhang_fan_threshold = 50%
; overhang_threshold_participating_cooling = 95%
; overhang_totally_speed = 24
; post_process = 
; precise_z_height = 0
; pressure_advance = 0.02
; prime_tower_brim_width = 3
; prime_tower_width = 60
; prime_volume = 45
; print_compatible_printers = "Anycubic i3 Mega S 0.4 nozzle"
; print_flow_ratio = 1
; print_sequence = by layer
; print_settings_id = mega-s_0.20mm_hb_default
; printable_area = 0x0,225x0,225x220,0x220
; printable_height = 210
; printer_model = Anycubic i3 Mega S
; printer_notes = 
; printer_settings_id = HB Anycubic i3 Mega S 0.4 nozzle marlin
; printer_structure = undefine
; printer_technology = FFF
; printer_variant = 0.4
; printhost_authorization_type = key
; printhost_ssl_ignore_revoke = 1
; printing_by_object_gcode = 
; process_notes = 
; raft_contact_distance = 0.1
; raft_expansion = 1.5
; raft_first_layer_density = 90%
; raft_first_layer_expansion = 0
; raft_layers = 0
; reduce_crossing_wall = 0
; reduce_fan_stop_start_freq = 1
; reduce_infill_retraction = 1
; required_nozzle_HRC = 3
; resolution = 0.012
; retract_before_wipe = 60%
; retract_length_toolchange = 1
; retract_lift_above = 0
; retract_lift_below = 204
; retract_restart_extra = 0
; retract_restart_extra_toolchange = 0
; retract_when_changing_layer = 1
; retraction_distances_when_cut = 18
; retraction_length = 6
; retraction_minimum_travel = 1.5
; retraction_speed = 40
; role_base_wipe_speed = 1
; scan_first_layer = 0
; scarf_angle_threshold = 155
; seam_gap = 15%
; seam_position = aligned
; seam_slope_conditional = 1
; seam_slope_entire_loop = 0
; seam_slope_inner_walls = 1
; seam_slope_steps = 10
; silent_mode = 0
; single_extruder_multi_material = 0
; skirt_distance = 2
; skirt_height = 1
; skirt_loops = 1
; slice_closing_radius = 0.049
; slicing_mode = regular
; slow_down_for_layer_cooling = 1
; slow_down_layer_time = 8
; slow_down_min_speed = 10
; small_perimeter_speed = 50%
; small_perimeter_threshold = 0
; smooth_coefficient = 80
; smooth_speed_discontinuity_area = 1
; solid_infill_filament = 1
; sparse_infill_acceleration = 100%
; sparse_infill_anchor = 400%
; sparse_infill_anchor_max = 20
; sparse_infill_density = 20%
; sparse_infill_filament = 1
; sparse_infill_line_width = 0.45
; sparse_infill_pattern = adaptivecubic
; sparse_infill_speed = 60
; spiral_mode = 0
; spiral_mode_max_xy_smoothing = 200%
; spiral_mode_smooth = 0
; standby_temperature_delta = -5
; start_end_points = 30x-3,54x245
; supertack_plate_temp = 35
; supertack_plate_temp_initial_layer = 35
; support_air_filtration = 0
; support_angle = 0
; support_base_pattern = default
; support_base_pattern_spacing = 2.5
; support_bottom_interface_spacing = 0.5
; support_bottom_z_distance = 0.2
; support_chamber_temp_control = 0
; support_critical_regions_only = 0
; support_expansion = 0
; support_filament = 0
; support_interface_bottom_layers = 0
; support_interface_filament = 0
; support_interface_loop_pattern = 0
; support_interface_not_for_body = 1
; support_interface_pattern = auto
; support_interface_spacing = 0.5
; support_interface_speed = 100
; support_interface_top_layers = 3
; support_line_width = 0.4
; support_object_first_layer_gap = 0.2
; support_object_xy_distance = 0.35
; support_on_build_plate_only = 0
; support_remove_small_overhang = 1
; support_speed = 50
; support_style = default
; support_threshold_angle = 30
; support_top_z_distance = 0.2
; support_type = tree(auto)
; temperature_vitrification = 60
; template_custom_gcode = 
; textured_plate_temp = 45
; textured_plate_temp_initial_layer = 45
; thick_bridges = 0
; thumbnail_size = 50x50
; time_lapse_gcode = 
; timelapse_type = 0
; top_area_threshold = 100%
; top_one_wall_type = all top
; top_shell_layers = 5
; top_shell_thickness = 0.8
; top_solid_infill_flow_ratio = 1
; top_surface_acceleration = 0
; top_surface_jerk = 9
; top_surface_line_width = 0.35
; top_surface_pattern = monotonic
; top_surface_speed = 40
; travel_jerk = 9
; travel_speed = 180
; travel_speed_z = 0
; tree_support_branch_angle = 40
; tree_support_branch_diameter = 5
; tree_support_branch_diameter_angle = 5
; tree_support_branch_distance = 5
; tree_support_wall_count = 0
; upward_compatible_machine = 
; use_firmware_retraction = 0
; use_relative_e_distances = 1
; wall_distribution_count = 1
; wall_filament = 1
; wall_generator = arachne
; wall_loops = 3
; wall_sequence = inner wall/outer wall
; wall_transition_angle = 10
; wall_transition_filter_deviation = 25%
; wall_transition_length = 100%
; wipe = 1
; wipe_distance = 2
; wipe_speed = 80%
; wipe_tower_no_sparse_layers = 0
; wipe_tower_rotation_angle = 0
; wipe_tower_x = 165
; wipe_tower_y = 250
; xy_contour_compensation = 0
; xy_hole_compensation = 0
; z_hop = 0.4
; z_hop_types = Normal Lift
; CONFIG_BLOCK_END

; THUMBNAIL_BLOCK_START
; THUMBNAIL_BLOCK_END

; EXECUTABLE_BLOCK_START
M73 P0 R3
M201 X3000 Y2000 Z60 E10000
M203 X500 Y500 Z8 E30
M204 P1250 R1250 T1250
M205 X10.00 Y10.00 Z0.40 E5.00
M106 S0
M106 P2 S0
; FEATURE: Custom
G90 ; use absolute coordinates
M83 ; extruder relative mode
M204 S1250 T1250
M104 S220 ; set extruder temp
M140 S45 ; set bed temp
G28 ; home all
; hb begin instructions to use the mesh
M501 ; hb load all saved settings from eeprom
M420 S1 ; hb switch bed levelling on
G29 S4 Z-0.07
; hb end instructions to use the mesh
G1 Y1.0 Z0.3 F1000 ; move print head up
M190 S45 ; wait for bed temp
M109 S220 ; wait for extruder temp
G92 E0.0
; initial load
G1 X205.0 E19 F1000
G1 Y1.6
M73 P6 R2
G1 X5.0 E19 F1000
G92 E0.0
; intro line
G1 Y2.0 Z0.2 F1000
M73 P13 R2
G1 X65.0 E9.0 F1000
G1 X105.0 E12.5 F1000
G92 E0.0
G90
G21
M83 ; use relative distances for extrusion
; filament start gcode
; CHANGE_LAYER
; Z_HEIGHT: 0.22
; LAYER_HEIGHT: 0.22
;BEFORE_LAYER_CHANGE
G92 E0.0
;0.22


M73 P15 R2
G1 E-6 F2400
;AFTER_LAYER_CHANGE
;0.22
M106 S0
M106 P2 S0
M204 S800
M73 P16 R2
G1 Z.4 F10800
G1 X6.404 Y3.968
G1 Z.4
M73 P17 R2
G1 Z.22
G1 E6 F3000
; FEATURE: Skirt
; LINE_WIDTH: 0.42
G1 F2700
G1 X7.45 Y3.093 E.04555
G1 X8.385 Y2.901 E.03192
G1 X29.208 Y2.901 E.6958
G1 X30.873 Y3.583 E.06011
G1 X218.279 Y188.101 E8.78813
G1 X218.987 Y189.791 E.06125
M73 P20 R2
G1 X218.987 Y214.726 E.8332
G1 X218.596 Y216.032 E.04555
M73 P21 R2
G1 X217.55 Y216.907 E.04555
G1 X216.615 Y217.099 E.03192
G1 X195.792 Y217.099 E.6958
G1 X194.127 Y216.417 E.06011
G1 X6.721 Y31.899 E8.78813
G1 X6.013 Y30.209 E.06125
M73 P24 R2
G1 X6.013 Y5.274 E.8332
G1 X6.387 Y4.025 E.04355
G1 E-3.6 F2400
; WIPE_START
M73 P25 R2
G1 F2700
G1 X7.45 Y3.093 E-1.61156
G1 X8.024 Y2.975 E-.66844
; WIPE_END
G1 E-.12 F2400
; start printing object, unique label id: 109
; printing object 1_x_3_grid_bed_level_test_prusa_mk3.stl_8_id_0_copy_0
G1 Z.62 F10800
G1 X28.798 Y29.799 Z.62
G1 Z.22
G1 E6 F3000
; FEATURE: Outer wall
; LINE_WIDTH: 0.419999
G1 F2700
G1 X8.795 Y29.799 E.6684
G1 X8.795 Y5.684 E.8058
G1 X28.798 Y5.684 E.6684
M73 P26 R2
G1 X28.798 Y15.685 E.3342
G1 X28.798 Y29.739 E.4696
G1 E-3.6 F2400
; WIPE_START
G1 F2700
G1 X26.798 Y29.745 E-2.28
; WIPE_END
G1 E-.12 F2400
G1 Z.62 F10800
G1 X27.917 Y5.803 Z.62
G1 Z.22
M73 P27 R2
G1 E6 F3000
; FEATURE: Bottom surface
; LINE_WIDTH: 0.424178
G1 F2100
G1 X28.511 Y6.398 E.02842
G1 X28.511 Y6.931 E.01801
G1 X27.551 Y5.971 E.04588
G1 X27.018 Y5.971 E.01801
G1 X28.511 Y7.464 E.07135
G1 X28.511 Y7.997 E.01801
G1 X26.485 Y5.971 E.09683
G1 X25.952 Y5.971 E.01801
G1 X28.511 Y8.53 E.1223
G1 X28.511 Y9.063 E.01801
G1 X25.419 Y5.971 E.14778
G1 X24.886 Y5.971 E.01801
G1 X28.511 Y9.596 E.17325
G1 X28.511 Y10.129 E.01801
G1 X24.353 Y5.971 E.19873
G1 X23.819 Y5.971 E.01801
G1 X28.511 Y10.663 E.2242
G1 X28.511 Y11.196 E.01801
M73 P28 R2
G1 X23.286 Y5.971 E.24968
G1 X22.753 Y5.971 E.01801
G1 X28.511 Y11.729 E.27515
G1 X28.511 Y12.262 E.01801
G1 X22.22 Y5.971 E.30063
G1 X21.687 Y5.971 E.01801
G1 X28.511 Y12.795 E.3261
G1 X28.511 Y13.328 E.01801
G1 X21.154 Y5.971 E.35158
G1 X20.621 Y5.971 E.01801
G1 X28.511 Y13.861 E.37705
G1 X28.511 Y14.394 E.01801
M73 P29 R2
G1 X20.088 Y5.971 E.40253
G1 X19.555 Y5.971 E.01801
G1 X28.511 Y14.927 E.428
G1 X28.511 Y15.461 E.01801
G1 X19.021 Y5.971 E.45348
G1 X18.488 Y5.971 E.01801
G1 X28.511 Y15.994 E.47896
G1 X28.511 Y16.527 E.01801
G1 X17.955 Y5.971 E.50443
