; HEADER_BLOCK_START
; BambuStudio 01.10.01.50
; estimated printing time (normal mode) = 2h 52m 50s
; total layer number: 158
; total filament length [mm] : 9836.43
; total filament volume [cm^3] : 23659.38
; total filament weight [g] : 29.34
; filament_density: 1.24
; filament_diameter: 1.75
; max_z_height: 31.60
; HEADER_BLOCK_END

; CONFIG_BLOCK_START
; accel_to_decel_enable = 0
; accel_to_decel_factor = 50%
; activate_air_filtration = 0
; additional_cooling_fan_speed = 70
; auxiliary_fan = 0
; bed_custom_model = 
; bed_custom_texture = 
; bed_exclude_area = 0x0
; before_layer_change_gcode = ;BEFORE_LAYER_CHANGE\nG92 E0.0\n;[layer_z]\n\n
; best_object_pos = 0.5,0.5
; bottom_shell_layers = 4
; bottom_shell_thickness = 0.5
; bottom_surface_pattern = monotonic
; bridge_angle = 0
; bridge_flow = 0.95
; bridge_no_support = 0
; bridge_speed = 25
; brim_object_gap = 0
; brim_type = auto_brim
; brim_width = 0
; chamber_temperatures = 0
; change_filament_gcode = M600
; close_fan_the_first_x_layers = 1
; complete_print_exhaust_fan_speed = 80
; cool_plate_temp = 35
; cool_plate_temp_initial_layer = 35
; curr_bed_type = High Temp Plate
; default_acceleration = 1000
; default_filament_colour = ""
; default_filament_profile = "Generic PLA @Anycubic"
; default_jerk = 0
; default_print_profile = 0.20mm Standard @Anycubic i3MegaS
; deretraction_speed = 50
; detect_narrow_internal_solid_infill = 1
; detect_overhang_wall = 1
; detect_thin_wall = 0
; different_settings_to_system = raft_first_layer_expansion;seam_position;;
; draft_shield = disabled
; during_print_exhaust_fan_speed = 60
; elefant_foot_compensation = 0.2
; enable_arc_fitting = 0
; enable_long_retraction_when_cut = 0
; enable_overhang_bridge_fan = 1
; enable_overhang_speed = 1
; enable_pressure_advance = 0
; enable_prime_tower = 0
; enable_support = 0
; enforce_support_layers = 0
; eng_plate_temp = 0
; eng_plate_temp_initial_layer = 0
; ensure_vertical_shell_thickness = 1
; exclude_object = 1
; extruder_clearance_dist_to_rod = 33
; extruder_clearance_height_to_lid = 140
; extruder_clearance_height_to_rod = 36
; extruder_clearance_max_radius = 65
; extruder_colour = #018001
; extruder_offset = 0x0
; extruder_type = Bowden
; fan_cooling_layer_time = 100
; fan_max_speed = 100
; fan_min_speed = 100
; filament_colour = #00FF40
; filament_cost = 20
; filament_density = 1.24
; filament_diameter = 1.75
; filament_end_gcode = "; filament end gcode \n"
; filament_flow_ratio = 0.98
; filament_ids = GFL99
; filament_is_support = 0
; filament_max_volumetric_speed = 12
; filament_minimal_purge_on_wipe_tower = 15
; filament_notes = 
; filament_scarf_gap = 0
; filament_scarf_height = 0%
; filament_scarf_length = 10
; filament_scarf_seam_type = none
; filament_settings_id = "Generic PLA @Anycubic"
; filament_shrink = 100%
; filament_soluble = 0
; filament_start_gcode = "; filament start gcode\n"
; filament_type = PLA
; filament_vendor = Generic
; filename_format = [input_filename_base].gcode
; filter_out_gap_fill = 0
; first_layer_print_sequence = 0
; flush_into_infill = 0
; flush_into_objects = 0
; flush_into_support = 1
; flush_multiplier = 1
; flush_volumes_matrix = 0
; flush_volumes_vector = 140,140
; full_fan_speed_layer = 0
; fuzzy_skin = none
; fuzzy_skin_point_distance = 0.8
; fuzzy_skin_thickness = 0.3
; gap_infill_speed = 30
; gcode_add_line_number = 0
; gcode_flavor = marlin
; has_scarf_joint_seam = 0
; head_wrap_detect_zone = 
; host_type = octoprint
; hot_plate_temp = 45
; hot_plate_temp_initial_layer = 45
; independent_support_layer_height = 1
; infill_combination = 0
; infill_direction = 45
; infill_jerk = 9
; infill_wall_overlap = 23%
; initial_layer_acceleration = 800
; initial_layer_flow_ratio = 1
; initial_layer_infill_speed = 35
; initial_layer_jerk = 9
; initial_layer_line_width = 0.42
; initial_layer_print_height = 0.2
; initial_layer_speed = 45
; inner_wall_acceleration = 0
; inner_wall_jerk = 9
; inner_wall_line_width = 0.45
; inner_wall_speed = 40
; interface_shells = 0
; internal_bridge_support_thickness = 0
; internal_solid_infill_line_width = 0
; internal_solid_infill_pattern = zig-zag
; internal_solid_infill_speed = 40
; ironing_direction = 45
; ironing_flow = 15%
; ironing_inset = 0
; ironing_pattern = zig-zag
; ironing_spacing = 0.1
; ironing_speed = 15
; ironing_type = no ironing
; is_infill_first = 0
; layer_change_gcode = ;AFTER_LAYER_CHANGE\n;[layer_z]
; layer_height = 0.2
; line_width = 0.45
; long_retractions_when_cut = 0
; machine_end_gcode = G1 E-1.0 F2100 ; retract\nG92 E0.0\nG1{if max_layer_z < printable_height} Z{z_offset+min(max_layer_z+30, printable_height)}{endif} E-34.0 F720 ; move print head up & retract filament\nG4 ; wait\nM104 S0 ; turn off temperature\nM140 S0 ; turn off heatbed\nM107 ; turn off fan\nG1 X0 Y105 F3000 ; park print head\nM84 ; disable motors
; machine_load_filament_time = 0
; machine_max_acceleration_e = 10000,10000
; machine_max_acceleration_extruding = 1250,1250
; machine_max_acceleration_retracting = 1250,1250
; machine_max_acceleration_travel = 1000,1000
; machine_max_acceleration_x = 3000,3000
; machine_max_acceleration_y = 2000,2000
; machine_max_acceleration_z = 60,60
; machine_max_jerk_e = 5,5
; machine_max_jerk_x = 10,10
; machine_max_jerk_y = 10,10
; machine_max_jerk_z = 0.4,0.4
; machine_max_speed_e = 30,30
; machine_max_speed_x = 500,500
; machine_max_speed_y = 500,500
; machine_max_speed_z = 8,8
; machine_min_extruding_rate = 0,0
; machine_min_travel_rate = 0,0
; machine_pause_gcode = M25
; machine_start_gcode = G90 ; use absolute coordinates\nM83 ; extruder relative mode\nM204 S[machine_max_acceleration_extruding] T[machine_max_acceleration_retracting]\nM104 S[nozzle_temperature_initial_layer] ; set extruder temp\nM140 S[bed_temperature_initial_layer_single] ; set bed temp\nG28 ; home all\nG1 Y1.0 Z0.3 F1000 ; move print head up\nM190 S[bed_temperature_initial_layer_single] ; wait for bed temp\nM109 S[nozzle_temperature_initial_layer] ; wait for extruder temp\nG92 E0.0\n; initial load\nG1 X205.0 E19 F1000\nG1 Y1.6\nG1 X5.0 E19 F1000\nG92 E0.0\n; intro line\nG1 Y2.0 Z0.2 F1000\nG1 X65.0 E9.0 F1000\nG1 X105.0 E12.5 F1000\nG92 E0.0
; machine_unload_filament_time = 0
; max_bridge_length = 10
; max_layer_height = 0.36
; max_travel_detour_distance = 0
; min_bead_width = 85%
; min_feature_size = 25%
; min_layer_height = 0.08
; minimum_sparse_infill_area = 10
; mmu_segmented_region_interlocking_depth = 0
; mmu_segmented_region_max_width = 0
; nozzle_diameter = 0.4
; nozzle_height = 4
; nozzle_temperature = 220
; nozzle_temperature_initial_layer = 220
; nozzle_temperature_range_high = 230
; nozzle_temperature_range_low = 190
; nozzle_type = undefine
; nozzle_volume = 0
; only_one_wall_first_layer = 0
; ooze_prevention = 0
; other_layers_print_sequence = 0
; other_layers_print_sequence_nums = 0
; outer_wall_acceleration = 700
; outer_wall_jerk = 9
; outer_wall_line_width = 0.45
; outer_wall_speed = 40
; overhang_1_4_speed = 0
; overhang_2_4_speed = 20
; overhang_3_4_speed = 15
; overhang_4_4_speed = 10
; overhang_fan_speed = 100
; overhang_fan_threshold = 50%
; overhang_threshold_participating_cooling = 95%
; overhang_totally_speed = 24
; post_process = 
; precise_z_height = 0
; pressure_advance = 0.02
; prime_tower_brim_width = 3
; prime_tower_width = 60
; prime_volume = 45
; print_compatible_printers = "Anycubic i3 Mega S 0.4 nozzle"
; print_flow_ratio = 1
; print_sequence = by layer
; print_settings_id = 0.20mm Standard @Anycubic i3MegaS
; printable_area = 0x0,210x0,210x210,0x210
; printable_height = 205
; printer_model = Anycubic i3 Mega S
; printer_notes = 
; printer_settings_id = Anycubic i3 Mega S 0.4 nozzle
; printer_structure = undefine
; printer_technology = FFF
; printer_variant = 0.4
; printhost_authorization_type = key
; printhost_ssl_ignore_revoke = 0
; printing_by_object_gcode = 
; process_notes = 
; raft_contact_distance = 0.1
; raft_expansion = 1.5
; raft_first_layer_density = 90%
; raft_first_layer_expansion = 0
; raft_layers = 0
; reduce_crossing_wall = 0
; reduce_fan_stop_start_freq = 1
; reduce_infill_retraction = 1
; required_nozzle_HRC = 3
; resolution = 0.012
; retract_before_wipe = 60%
; retract_length_toolchange = 1
; retract_lift_above = 0
; retract_lift_below = 204
; retract_restart_extra = 0
; retract_restart_extra_toolchange = 0
; retract_when_changing_layer = 1
; retraction_distances_when_cut = 18
; retraction_length = 6
; retraction_minimum_travel = 1.5
; retraction_speed = 40
; role_base_wipe_speed = 1
; scan_first_layer = 0
; scarf_angle_threshold = 155
; seam_gap = 15%
; seam_position = back
; seam_slope_conditional = 1
; seam_slope_entire_loop = 0
; seam_slope_inner_walls = 1
; seam_slope_steps = 10
; silent_mode = 0
; single_extruder_multi_material = 0
; skirt_distance = 2
; skirt_height = 3
; skirt_loops = 2
; slice_closing_radius = 0.049
; slicing_mode = regular
; slow_down_for_layer_cooling = 1
; slow_down_layer_time = 8
; slow_down_min_speed = 10
; small_perimeter_speed = 50%
; small_perimeter_threshold = 0
; smooth_coefficient = 80
; smooth_speed_discontinuity_area = 1
; solid_infill_filament = 1
; sparse_infill_acceleration = 100%
; sparse_infill_anchor = 400%
; sparse_infill_anchor_max = 20
; sparse_infill_density = 15%
; sparse_infill_filament = 1
; sparse_infill_line_width = 0.45
; sparse_infill_pattern = grid
; sparse_infill_speed = 60
; spiral_mode = 0
; spiral_mode_max_xy_smoothing = 200%
; spiral_mode_smooth = 0
; standby_temperature_delta = -5
; start_end_points = 30x-3,54x245
; supertack_plate_temp = 35
; supertack_plate_temp_initial_layer = 35
; support_air_filtration = 0
; support_angle = 0
; support_base_pattern = default
; support_base_pattern_spacing = 2.5
; support_bottom_interface_spacing = 0.5
; support_bottom_z_distance = 0.2
; support_chamber_temp_control = 0
; support_critical_regions_only = 0
; support_expansion = 0
; support_filament = 0
; support_interface_bottom_layers = 0
; support_interface_filament = 0
; support_interface_loop_pattern = 0
; support_interface_not_for_body = 1
; support_interface_pattern = auto
; support_interface_spacing = 0.5
; support_interface_speed = 100
; support_interface_top_layers = 3
; support_line_width = 0.4
; support_object_first_layer_gap = 0.2
; support_object_xy_distance = 0.35
; support_on_build_plate_only = 0
; support_remove_small_overhang = 1
; support_speed = 50
; support_style = default
; support_threshold_angle = 30
; support_top_z_distance = 0.2
; support_type = normal(auto)
; temperature_vitrification = 60
; template_custom_gcode = 
; textured_plate_temp = 45
; textured_plate_temp_initial_layer = 45
; thick_bridges = 0
; thumbnail_size = 50x50
; time_lapse_gcode = 
; timelapse_type = 0
; top_area_threshold = 100%
; top_one_wall_type = all top
; top_shell_layers = 5
; top_shell_thickness = 0.8
; top_solid_infill_flow_ratio = 1
; top_surface_acceleration = 0
; top_surface_jerk = 9
; top_surface_line_width = 0.35
; top_surface_pattern = monotonic
; top_surface_speed = 40
; travel_jerk = 9
; travel_speed = 180
; travel_speed_z = 0
; tree_support_branch_angle = 40
; tree_support_branch_diameter = 5
; tree_support_branch_diameter_angle = 5
; tree_support_branch_distance = 5
; tree_support_wall_count = 0
; upward_compatible_machine = 
; use_firmware_retraction = 0
; use_relative_e_distances = 1
; wall_distribution_count = 1
; wall_filament = 1
; wall_generator = arachne
; wall_loops = 2
; wall_sequence = inner wall/outer wall
; wall_transition_angle = 10
; wall_transition_filter_deviation = 25%
; wall_transition_length = 100%
; wipe = 1
; wipe_distance = 2
; wipe_speed = 80%
; wipe_tower_no_sparse_layers = 0
; wipe_tower_rotation_angle = 0
; wipe_tower_x = 165
; wipe_tower_y = 250
; xy_contour_compensation = 0
; xy_hole_compensation = 0
; z_hop = 0.4
; z_hop_types = Normal Lift
; CONFIG_BLOCK_END

; THUMBNAIL_BLOCK_START
; THUMBNAIL_BLOCK_END

; EXECUTABLE_BLOCK_START
M73 P0 R172
M201 X3000 Y2000 Z60 E10000
M203 X500 Y500 Z8 E30
M204 P1250 R1250 T1250
M205 X10.00 Y10.00 Z0.40 E5.00
M106 S0
M106 P2 S0
; FEATURE: Custom
G90 ; use absolute coordinates
M83 ; extruder relative mode
M204 S1250 T1250
M104 S220 ; set extruder temp
M140 S45 ; set bed temp
G28 ; home all
G1 Y1.0 Z0.3 F1000 ; move print head up
M190 S45 ; wait for bed temp
M109 S220 ; wait for extruder temp
G92 E0.0
; initial load
G1 X205.0 E19 F1000
G1 Y1.6
G1 X5.0 E19 F1000
G92 E0.0
; intro line
G1 Y2.0 Z0.2 F1000
G1 X65.0 E9.0 F1000
G1 X105.0 E12.5 F1000
G92 E0.0
G90
G21
M83 ; use relative distances for extrusion
; filament start gcode
; CHANGE_LAYER
; Z_HEIGHT: 0.2
; LAYER_HEIGHT: 0.2
;BEFORE_LAYER_CHANGE
G92 E0.0
;0.2


G1 E-6 F2400
;AFTER_LAYER_CHANGE
;0.2
M106 S0
M106 P2 S0
M204 S800
G1 Z.4 F10800
G1 X81.516 Y70.389
G1 Z.4
G1 Z.2
G1 E6 F3000
; FEATURE: Skirt
; LINE_WIDTH: 0.42
G1 F2700
G1 X82.664 Y69.469 E.04519
G1 X83.75 Y69.246 E.03406
G1 X177.75 Y69.246 E2.88836
G1 X179.167 Y69.639 E.04519
G1 X180.181 Y70.705 E.04519
G1 X180.504 Y72 E.04102
G1 X180.504 Y119 E1.44418
G1 X174.994 Y184.232 E2.01154
G1 X174.484 Y185.611 E.04519
G1 X173.336 Y186.531 E.04519
G1 X172.25 Y186.754 E.03406
G1 X78.25 Y186.754 E2.88836
G1 X76.833 Y186.361 E.04519
G1 X75.819 Y185.295 E.04519
G1 X75.496 Y184 E.04102
G1 X75.496 Y137 E1.44418
G1 X81.006 Y71.768 E2.01154
G1 X81.496 Y70.445 E.04335
G1 X81.859 Y70.588 F10800
G1 F2700
G1 X81.882 Y70.53 E.00191
G1 X82.998 Y69.745 E.04193
G1 X83.75 Y69.623 E.02342
G1 X177.75 Y69.623 E2.88836
G1 X179.057 Y70.015 E.04193
G1 X179.933 Y71.06 E.04193
G1 X180.127 Y72 E.02948
G1 X180.119 Y119.2 E1.45034
G1 X174.619 Y184.2 E2.00441
G1 X174.118 Y185.47 E.04193
G1 X173.002 Y186.255 E.04193
G1 X172.25 Y186.377 E.02342
G1 X78.25 Y186.377 E2.88836
G1 X76.943 Y185.985 E.04193
G1 X76.067 Y184.94 E.04193
G1 X75.873 Y184 E.02948
G1 X75.881 Y136.8 E1.45034
G1 X81.381 Y71.8 E2.00441
G1 X81.837 Y70.644 E.03817
M73 P0 R171
G1 E-3.6 F2400
; WIPE_START
G1 F2700
G1 X81.882 Y70.53 E-.13923
G1 X82.998 Y69.745 E-1.55545
G1 X83.504 Y69.663 E-.58533
; WIPE_END
G1 E-.12 F2400
G1 Z.6 F10800
G1 X171.463 Y183.213 Z.6
G1 Z.2
G1 E6 F3000
; FEATURE: Inner wall
; LINE_WIDTH: 0.419999
G1 F2700
G1 X79.037 Y183.213 E2.83998
G1 X79.037 Y137.787 E1.39581
G1 X171.463 Y137.787 E2.83998
G1 X171.463 Y160.5 E.6979
G1 X171.463 Y183.153 E.69606
G1 X171.84 Y183.59 F10800
; FEATURE: Outer wall
G1 F2700
G1 X78.66 Y183.59 E2.86316
G1 X78.66 Y137.41 E1.41898
G1 X171.84 Y137.41 E2.86316
G1 X171.84 Y160.5 E.70949
G1 X171.84 Y183.53 E.70765
G1 E-3.6 F2400
; WIPE_START
G1 F2700
G1 X169.84 Y183.531 E-2.28
; WIPE_END
G1 E-.12 F2400
G1 Z.6 F10800
G1 X170.578 Y137.908 Z.6
G1 Z.2
G1 E6 F3000
; FEATURE: Bottom surface
; LINE_WIDTH: 0.421083
G1 F2100
G1 X171.173 Y138.503 E.02592
G1 X171.173 Y139.037 E.01648
G1 X170.213 Y138.077 E.04184
G1 X169.678 Y138.077 E.01648
G1 X171.173 Y139.572 E.06514
G1 X171.173 Y140.107 E.01648
G1 X169.143 Y138.077 E.08845
G1 X168.608 Y138.077 E.01648
G1 X171.173 Y140.642 E.11176
G1 X171.173 Y141.177 E.01648
G1 X168.073 Y138.077 E.13506
G1 X167.539 Y138.077 E.01648
G1 X171.173 Y141.711 E.15837
G1 X171.173 Y142.246 E.01648
G1 X167.004 Y138.077 E.18168
G1 X166.469 Y138.077 E.01648
G1 X171.173 Y142.781 E.20498
G1 X171.173 Y143.316 E.01648
G1 X165.934 Y138.077 E.22829
G1 X165.399 Y138.077 E.01648
G1 X171.173 Y143.851 E.2516
G1 X171.173 Y144.385 E.01648
G1 X164.865 Y138.077 E.2749
G1 X164.33 Y138.077 E.01648
G1 X171.173 Y144.92 E.29821
G1 X171.173 Y145.455 E.01648
G1 X163.795 Y138.077 E.32152
G1 X163.26 Y138.077 E.01648
G1 X171.173 Y145.99 E.34482
G1 X171.173 Y146.525 E.01648
G1 X162.725 Y138.077 E.36813
G1 X162.191 Y138.077 E.01648
G1 X171.173 Y147.059 E.39143
G1 X171.173 Y147.594 E.01648
G1 X161.656 Y138.077 E.41474
G1 X161.121 Y138.077 E.01648
G1 X171.173 Y148.129 E.43805
G1 X171.173 Y148.664 E.01648
G1 X160.586 Y138.077 E.46135
G1 X160.051 Y138.077 E.01648
G1 X171.173 Y149.199 E.48466
G1 X171.173 Y149.733 E.01648
G1 X159.517 Y138.077 E.50797
G1 X158.982 Y138.077 E.01648
G1 X171.173 Y150.268 E.53127
G1 X171.173 Y150.803 E.01648
